!!!OTL: ES KAM EIN BETRUEBTER REITER DAHER
!!!ARE: Europa, Mitteleuropa, Deutschland, Sachsen
!!!SCT: E0181A
!!!YEM: Copyright 1995, estate of Helmut Schaffrath.
**kern
*ICvox
*Ivox
*M4/4
*k[f#]
*G:
{8b
8a
=1
4g
8g
8g
8g
8a
8b
8cc
=2
4dd
8.dd
16dd
4dd}
{4ee
=3
4dd
8.cc
16cc
4cc
8dd
8cc
=4
8.cc
16b
8b
8b
4b}
{4dd
=5
4b
8a
8a
4a
8g
8a
=6
4b
4b
4b}
{8dd
8dd
=7
4b
4a
4a
8g
8a
=8
4b
4b
4b}
==
!!!AGN: erzaehlendes Volks - Lied, Sage, Familien - Geschichte
!!!ONB: ESAC (Essen Associative Code) Database: ERK1
!!!AMT: simple quadruple
!!!AIN: vox
!!!EED: Helmut Schaffrath
!!!EEV: 1.0
*-
